X:11
T:Branle de Gouloux
A:Morvan
O:France
M:6/8
K:G
G2BA2G|FGA G2 D|G2 BA2G|FGA G3:|
|A3A2G|F2ED3|D2GF2G|A2Bc2A|A3A2G|F2ED3|D2GF2F|G2AG3||
